X:477
T: Chuhai
N: C2096
O: China, Guangdong Haifeng
S: II, 354, 2)]
R: Xiaodiao, Yge]
M: 2/4
L: 1/16
K: G
E2G2D4 | E2D2G4 | G2A2B4- | B8
A2B2G2A2 | E2D2E2G2 | A2B2B2A2 | G8
A4E4 | D8 | E2G2G2E2 | D8- | D8

